assets/logo6.svg

<svg width="125" height="40" viewBox="0 0 125 40" fill="none" xmlns="http://www.w3.org/2000/svg">
<g clip-path="url(#clip0_21_52)">
<path d="M88.861 37.225C89.62 37.225 90.069 36.65 90.069 35.751C90.069 34.819 89.587 34.277 88.877 34.277C88.471 34.277 88.189 34.457 87.978 34.743H87.968V33.27H87.528V37.143H87.968V36.775H87.978C88.206 37.089 88.482 37.225 88.861 37.225ZM88.829 36.856C88.233 36.856 87.94 36.385 87.94 35.756C87.94 35.15 88.222 34.651 88.834 34.651C89.365 34.651 89.62 35.128 89.62 35.756C89.62 36.39 89.365 36.856 88.829 36.856ZM90.812 38.07C91.153 38.07 91.37 37.95 91.597 37.37L92.795 34.342H92.329L91.689 36.087C91.603 36.32 91.505 36.634 91.505 36.634H91.495C91.495 36.634 91.391 36.32 91.305 36.087L90.644 34.342H90.167L91.261 37.062L91.153 37.338C91.045 37.609 90.92 37.68 90.736 37.68C90.6332 37.6852 90.5307 37.6646 90.438 37.62H90.416V38.01C90.536 38.059 90.644 38.07 90.812 38.07ZM93.918 37.143H94.655V33.27H93.918V37.143ZM96.457 37.225C97.318 37.225 97.909 36.585 97.909 35.756C97.909 34.927 97.319 34.288 96.457 34.288C95.596 34.288 95.005 34.928 95.005 35.756C95.005 36.586 95.595 37.225 96.457 37.225ZM96.457 36.661C96.002 36.661 95.753 36.298 95.753 35.756C95.753 35.215 96.002 34.846 96.457 34.846C96.907 34.846 97.161 35.215 97.161 35.756C97.161 36.298 96.907 36.661 96.457 36.661ZM99.476 38.091C99.888 38.091 100.245 37.994 100.478 37.777C100.684 37.587 100.809 37.322 100.809 36.932V34.364H100.099V34.657H100.088C99.92 34.424 99.666 34.288 99.318 34.288C98.615 34.288 98.116 34.819 98.116 35.648C98.116 36.488 98.723 36.975 99.341 36.975C99.693 36.975 99.904 36.835 100.066 36.65H100.083V36.954C100.083 37.333 99.883 37.534 99.465 37.534C99.124 37.534 98.967 37.398 98.907 37.224H98.176C98.251 37.766 98.717 38.091 99.476 38.091ZM99.466 36.385C99.086 36.385 98.836 36.109 98.836 35.637C98.836 35.171 99.086 34.879 99.46 34.879C99.904 34.879 100.121 35.225 100.121 35.632C100.121 36.044 99.931 36.385 99.465 36.385H99.466ZM102.6 37.225C103.461 37.225 104.052 36.585 104.052 35.756C104.052 34.927 103.461 34.288 102.6 34.288C101.738 34.288 101.148 34.928 101.148 35.756C101.148 36.586 101.738 37.225 102.6 37.225ZM102.6 36.661C102.145 36.661 101.895 36.298 101.895 35.756C101.895 35.215 102.145 34.846 102.6 34.846C103.049 34.846 103.304 35.215 103.304 35.756C103.304 36.298 103.049 36.661 102.6 36.661ZM104.394 37.143H105.131V34.364H104.394V37.143ZM104.394 33.931H105.131V33.27H104.394V33.931ZM105.606 38.053H106.343V36.83H106.353C106.511 37.069 106.765 37.226 107.155 37.226C107.87 37.226 108.358 36.656 108.358 35.757C108.358 34.89 107.887 34.289 107.15 34.289C106.989 34.2864 106.83 34.3237 106.688 34.3975C106.545 34.4713 106.423 34.5794 106.332 34.712H106.316V34.365H105.606V38.055V38.053ZM106.998 36.613C106.559 36.613 106.326 36.282 106.326 35.778C106.326 35.28 106.511 34.884 106.971 34.884C107.426 34.884 107.61 35.252 107.61 35.778C107.61 36.304 107.372 36.613 106.998 36.613ZM109.828 37.225C110.521 37.225 110.998 36.889 110.998 36.331C110.998 35.681 110.483 35.551 110.017 35.453C109.622 35.372 109.254 35.35 109.254 35.112C109.254 34.912 109.443 34.802 109.73 34.802C110.045 34.802 110.234 34.912 110.267 35.209H110.933C110.879 34.651 110.473 34.289 109.741 34.289C109.107 34.289 108.609 34.575 108.609 35.177C108.609 35.783 109.096 35.919 109.595 36.017C109.974 36.092 110.326 36.119 110.326 36.385C110.326 36.58 110.142 36.705 109.817 36.705C109.487 36.705 109.259 36.564 109.21 36.244H108.528C108.571 36.834 109.021 37.225 109.828 37.225ZM113.796 37.143V34.364H113.059V35.968C113.059 36.336 112.847 36.596 112.501 36.596C112.187 36.596 112.04 36.417 112.04 36.092V34.364H111.309V36.217C111.309 36.824 111.656 37.219 112.273 37.219C112.663 37.219 112.88 37.073 113.07 36.819H113.086V37.143H113.796ZM114.272 37.143H115.009V35.53C115.009 35.161 115.209 34.923 115.507 34.923C115.778 34.923 115.935 35.086 115.935 35.4V37.144H116.672V35.53C116.672 35.161 116.862 34.923 117.171 34.923C117.442 34.923 117.599 35.086 117.599 35.4V37.144H118.336V35.275C118.336 34.668 118.005 34.289 117.42 34.289C117.068 34.289 116.775 34.473 116.586 34.777H116.575C116.508 34.6294 116.4 34.5046 116.263 34.4178C116.126 34.3311 115.967 34.2863 115.805 34.289C115.642 34.2849 115.482 34.3245 115.34 34.4037C115.198 34.4828 115.08 34.5987 114.998 34.739H114.982V34.365H114.272V37.145V37.143Z" fill="#AAAAAA"/>
<path d="M118.481 2.14906C118.481 0.966061 119.44 0.00606055 120.623 0.00606055H122.052C122.62 0.00606055 123.165 0.23184 123.567 0.633731C123.969 1.03562 124.195 1.5807 124.195 2.14906C124.195 2.71742 123.969 3.2625 123.567 3.66439C123.165 4.06628 122.62 4.29206 122.052 4.29206H120.623C120.342 4.29206 120.063 4.23662 119.803 4.12891C119.543 4.02121 119.307 3.86334 119.108 3.66433C118.909 3.46532 118.751 3.22907 118.644 2.96908C118.536 2.70908 118.481 2.43044 118.481 2.14906ZM58.49 14.2901C58.49 22.1781 52.096 28.5731 44.207 28.5731C36.319 28.5731 29.924 22.1781 29.924 14.2901C29.924 6.40006 36.319 0.00706055 44.207 0.00706055C52.096 0.00706055 58.49 6.40006 58.49 14.2901ZM27.138 14.2191C27.928 14.2191 28.574 14.8591 28.495 15.6451C28.225 18.3349 27.1972 20.8929 25.5311 23.0217C23.8649 25.1505 21.6288 26.7628 19.0827 27.6712C16.5365 28.5796 13.7848 28.7467 11.1475 28.1532C8.51009 27.5596 6.09531 26.2298 4.18376 24.3183C2.27222 22.4067 0.942401 19.9919 0.348871 17.3546C-0.244659 14.7172 -0.0775326 11.9655 0.830827 9.41936C1.73919 6.87321 3.35148 4.63712 5.48032 2.97097C7.60917 1.30482 10.1671 0.277035 12.857 0.00706055C13.642 -0.0729394 14.283 0.575061 14.283 1.36306V12.7901C14.283 13.5801 14.923 14.2191 15.712 14.2191H27.138ZM78.487 31.4301C79.6234 31.4301 80.7133 31.8815 81.5169 32.6851C82.3205 33.4887 82.772 34.5786 82.772 35.7151C82.772 36.8515 82.3205 37.9414 81.5169 38.745C80.7133 39.5486 79.6234 40.0001 78.487 40.0001H71.346C70.2095 40.0001 69.1196 39.5486 68.316 38.745C67.5124 37.9414 67.061 36.8515 67.061 35.7151C67.061 34.5786 67.5124 33.4887 68.316 32.6851C69.1196 31.8815 70.2095 31.4301 71.346 31.4301H78.487ZM74.202 28.5731C82.091 28.5731 88.486 22.1781 88.486 14.2901C88.4894 11.867 87.8736 9.48327 86.697 7.36506L89.057 5.00506C89.3288 4.73309 89.5444 4.41025 89.6915 4.05495C89.8385 3.69966 89.9142 3.31888 89.9141 2.93435C89.914 2.54983 89.8382 2.16908 89.6909 1.81386C89.5437 1.45864 89.3279 1.1359 89.056 0.864061C88.784 0.592224 88.4612 0.376618 88.1059 0.229551C87.7506 0.0824848 87.3698 0.00683844 86.9853 0.00693131C86.6007 0.00702417 86.22 0.0828544 85.8648 0.230092C85.5095 0.377331 85.1868 0.593093 84.915 0.865061L82.855 2.92506C80.3697 1.02697 77.3281 0.00102872 74.201 0.00606055C66.314 0.00706055 59.92 6.40006 59.92 14.2901C59.92 22.1781 66.314 28.5731 74.202 28.5731ZM118.481 14.2901C118.481 22.1781 112.086 28.5731 104.197 28.5731C96.309 28.5731 89.914 22.1781 89.914 14.2901C89.914 6.40006 96.309 0.00706055 104.197 0.00706055C112.086 0.00706055 118.481 6.40106 118.481 14.2901Z" fill="#AAAAAA"/>
</g>
<defs>
<clipPath id="clip0_21_52">
<rect width="125" height="40" fill="white"/>
</clipPath>
</defs>
</svg>

<svg id="logo-79" class="gradient" width="125" height="40" viewBox="0 0 125 40" fill="none" xmlns="http://www.w3.org/2000/svg">  <path class="ccustom" d="M88.861 37.225c.759 0 1.208-.575 1.208-1.474 0-.932-.482-1.474-1.192-1.474-.406 0-.688.18-.899.466h-.01V33.27h-.44v3.873h.44v-.368h.01c.228.314.504.45.883.45Zm-.032-.369c-.596 0-.889-.471-.889-1.1 0-.606.282-1.105.894-1.105.531 0 .786.477.786 1.105 0 .634-.255 1.1-.791 1.1Zm1.983 1.214c.341 0 .558-.12.785-.7l1.198-3.028h-.466l-.64 1.745c-.086.233-.184.547-.184.547h-.01s-.104-.314-.19-.547l-.661-1.745h-.477l1.094 2.72-.108.276c-.108.271-.233.342-.417.342a.616.616 0 0 1-.298-.06h-.022v.39c.12.049.228.06.396.06Zm3.106-.927h.737V33.27h-.737v3.873Zm2.539.082c.861 0 1.452-.64 1.452-1.469 0-.829-.59-1.468-1.452-1.468-.861 0-1.452.64-1.452 1.468 0 .83.59 1.469 1.452 1.469Zm0-.564c-.455 0-.704-.363-.704-.905 0-.541.249-.91.704-.91.45 0 .704.369.704.91 0 .542-.254.905-.704.905Zm3.019 1.43c.412 0 .769-.097 1.002-.314.206-.19.331-.455.331-.845v-2.568h-.71v.293h-.011c-.168-.233-.422-.369-.77-.369-.703 0-1.202.531-1.202 1.36 0 .84.607 1.327 1.225 1.327.352 0 .563-.14.725-.325h.017v.304c0 .379-.2.58-.618.58-.341 0-.498-.136-.558-.31h-.731c.075.542.541.867 1.3.867Zm-.01-1.706c-.38 0-.63-.276-.63-.748 0-.466.25-.758.624-.758.444 0 .661.346.661.753 0 .412-.19.753-.656.753Zm3.134.84c.861 0 1.452-.64 1.452-1.469 0-.829-.591-1.468-1.452-1.468-.862 0-1.452.64-1.452 1.468 0 .83.59 1.469 1.452 1.469Zm0-.564c-.455 0-.705-.363-.705-.905 0-.541.25-.91.705-.91.449 0 .704.369.704.91 0 .542-.255.905-.704.905Zm1.794.482h.737v-2.779h-.737v2.78Zm0-3.212h.737v-.661h-.737v.66Zm1.212 4.122h.737V36.83h.01c.158.239.412.396.802.396.715 0 1.203-.57 1.203-1.469 0-.867-.471-1.468-1.208-1.468a.972.972 0 0 0-.818.423h-.016v-.347h-.71v3.69Zm1.392-1.44c-.439 0-.672-.331-.672-.835 0-.498.185-.894.645-.894.455 0 .639.368.639.894s-.238.834-.612.834Zm2.83.612c.693 0 1.17-.336 1.17-.894 0-.65-.515-.78-.981-.878-.395-.081-.763-.103-.763-.341 0-.2.189-.31.476-.31.315 0 .504.11.537.407h.666c-.054-.558-.46-.92-1.192-.92-.634 0-1.132.286-1.132.888 0 .606.487.742.986.84.379.075.731.102.731.368 0 .195-.184.32-.509.32-.33 0-.558-.141-.607-.461h-.682c.043.59.493.98 1.3.98Zm3.968-.082v-2.779h-.737v1.604c0 .368-.212.628-.558.628-.314 0-.461-.179-.461-.504v-1.728h-.731v1.853c0 .607.347 1.002.964 1.002.39 0 .607-.146.797-.4h.016v.324h.71Zm.476 0h.737V35.53c0-.369.2-.607.498-.607.271 0 .428.163.428.477v1.744h.737V35.53c0-.369.19-.607.499-.607.271 0 .428.163.428.477v1.744h.737v-1.869c0-.607-.331-.986-.916-.986-.352 0-.645.184-.834.488h-.011a.83.83 0 0 0-.77-.488.908.908 0 0 0-.807.45h-.016v-.374h-.71v2.78Z" fill="#E5708C"></path>  <path d="M118.481 2.149c0-1.183.959-2.143 2.142-2.143h1.429a2.142 2.142 0 0 1 0 4.286h-1.429a2.142 2.142 0 0 1-2.142-2.143ZM58.49 14.29c0 7.888-6.394 14.283-14.283 14.283-7.888 0-14.283-6.395-14.283-14.283C29.924 6.4 36.319.007 44.207.007 52.096.007 58.49 6.4 58.49 14.29Zm-31.352-.071c.79 0 1.436.64 1.357 1.426A14.283 14.283 0 1 1 12.857.007c.785-.08 1.426.568 1.426 1.356V12.79c0 .79.64 1.429 1.429 1.429h11.426ZM78.487 31.43a4.285 4.285 0 1 1 0 8.57h-7.141a4.285 4.285 0 0 1 0-8.57h7.141Zm-4.285-2.857c7.889 0 14.284-6.395 14.284-14.283a14.22 14.22 0 0 0-1.789-6.925l2.36-2.36a2.928 2.928 0 1 0-4.142-4.14l-2.06 2.06A14.22 14.22 0 0 0 74.201.006C66.314.007 59.92 6.4 59.92 14.29c0 7.888 6.395 14.283 14.283 14.283Zm44.279-14.283c0 7.888-6.395 14.283-14.284 14.283-7.888 0-14.283-6.395-14.283-14.283 0-7.89 6.395-14.283 14.283-14.283 7.889 0 14.284 6.394 14.284 14.283Z" fill="url(#gradient_a1234)"></path>  <defs>    <linearGradient id="gradient_a1234" x1="0" y1="16" x2="119" y2="16" gradientUnits="userSpaceOnUse">      <stop class="ccompli1" stop-color="#64C2DB"></stop>      <stop class="ccompli2" offset=".307" stop-color="#7476ED"></stop>      <stop class="ccustom" offset=".604" stop-color="#C994DF"></stop>      <stop class="ccompli1" offset="1" stop-color="#E56F8C"></stop>    </linearGradient>  </defs></svg>
